X:81
T: Der Jaeger im Tannenholz
N: Q0151D
O: Mitteleuropa, Deutschland (BRD) , Rheinland - Pfalz, Unterwesterwald,
R: Ballade, abgewiesener Freier, Abschied
M: 4/4
L: 1/8
K: G
D2 | G3DD2G2 | E2D2z2
G2 | A3GF2E2 | D2B2G2
D2 | G3DD2G2 | E2D2z2
G2 | A3GF2E2 | D2B2G2
GA | B2BBB2B2 | B2d2B2
Bd | c2c2A2d2 | B6
GA | B2BBB2B2 | B2d2B2
Bd | c2c2A2d2 | B6

